Sweet-Rainbow/icons/tutanota-desktop.svg

<?xml version="1.0" encoding="UTF-8" standalone="no"?>
<!-- Generator: Gravit.io -->

<svg
   xmlns:dc="http://purl.org/dc/elements/1.1/"
   xmlns:cc="http://creativecommons.org/ns#"
   xmlns:rdf="http://www.w3.org/1999/02/22-rdf-syntax-ns#"
   xmlns:svg="http://www.w3.org/2000/svg"
   xmlns="http://www.w3.org/2000/svg"
   xmlns:sodipodi="http://sodipodi.sourceforge.net/DTD/sodipodi-0.dtd"
   xmlns:inkscape="http://www.inkscape.org/namespaces/inkscape"
   style="isolation:isolate"
   viewBox="0 0 36 36"
   width="48"
   height="48"
   version="1.1"
   id="svg9"
   sodipodi:docname="tutanota-desktop.svg"
   inkscape:version="0.92.4 (5da689c313, 2019-01-14)">
  <metadata
     id="metadata15">
    <rdf:RDF>
      <cc:Work
         rdf:about="">
        <dc:format>image/svg+xml</dc:format>
        <dc:type
           rdf:resource="http://purl.org/dc/dcmitype/StillImage" />
        <dc:title></dc:title>
      </cc:Work>
    </rdf:RDF>
  </metadata>
  <defs
     id="defs13" />
  <sodipodi:namedview
     pagecolor="#ffffff"
     bordercolor="#666666"
     borderopacity="1"
     objecttolerance="10"
     gridtolerance="10"
     guidetolerance="10"
     inkscape:pageopacity="0"
     inkscape:pageshadow="2"
     inkscape:window-width="640"
     inkscape:window-height="480"
     id="namedview11"
     showgrid="false"
     inkscape:zoom="29.365243"
     inkscape:cx="25.325443"
     inkscape:cy="32"
     inkscape:current-layer="svg9"
     units="px" />
  <linearGradient
     id="_lgradient_5"
     x1="0.022727273"
     y1="0.19318181"
     x2="1.0417"
     y2="1.0452043"
     gradientTransform="matrix(44,0,0,44,2,2)"
     gradientUnits="userSpaceOnUse">
    <stop
       offset="0%"
       stop-opacity="1"
       style="stop-color:rgb(255,229,59)"
       id="stop2" />
    <stop
       offset="98.69565217391305%"
       stop-opacity="1"
       style="stop-color:rgb(255,0,91)"
       id="stop4" />
  </linearGradient>
  <g
     id="g826"
     transform="matrix(0.81818182,0,0,0.81818182,-1.6363637,-1.6363637)">
    <path
       id="path7"
       d="m 8,46 h 32 1 c 0.104,0 0.207,-0.003 0.31,-0.011 C 43.925,45.83 46,43.656 46,41 V 40 7 C 46,4.24 43.76,2 41,2 h -4.98 v 0 c -1.104,0 -2,0.896 -2,2 v 0 c 0,1.104 0.896,2 2,2 V 6 H 39 c 1.656,0 3,1.344 3,3 v 22.257 c -1.127,-1.678 -2.618,-2.954 -4.551,-3.919 -2.538,-1.267 -5.38,-2.128 -11.467,-3.467 -3.781,-0.832 -4.714,-1.141 -4.83,-1.601 -0.174,-0.694 1.365,-1.031 4.686,-1.272 3.445,-0.25 4.741,-0.645 5.125,-1.564 0.169,-0.405 0.085,-0.7 -0.297,-1.036 -0.219,-0.192 -0.383,-0.281 -0.453,-0.273 -0.07,0.008 -0.048,0.113 0.103,0.313 0.183,0.241 0.17,0.721 -0.025,0.892 -0.644,0.564 -1.812,0.685 -7.012,1.029 -2.965,0.197 -4.329,0.496 -5.33,1.168 -0.485,0.327 -0.845,0.805 -0.845,1.121 0,0.52 0.822,1.032 3.281,2.043 3.121,1.284 4.509,2.035 5.457,2.948 0.635,0.612 0.898,1.031 1.074,1.716 0.283,1.104 -0.165,2.263 -1.334,3.456 -2.109,2.151 -5.93,4.172 -14.543,7.693 -2.114,0.864 -3.504,1.41 -4.84,1.894 L 6,42 V 32 C 6,30.896 5.104,30 4,30 v 0 c -1.104,0 -2,0.896 -2,2 v 8 1 c 0,2.659 2.081,4.837 4.702,4.99 C 6.8,45.997 6.9,46 7,46 v 0 z M 6,24 v 0 c 0,1.104 -0.896,2 -2,2 v 0 C 2.896,26 2,25.104 2,24 V 24 7 C 2,4.24 4.24,2 7,2 h 21 v 0 c 1.104,0 2,0.896 2,2 v 0 c 0,1.104 -0.896,2 -2,2 V 6 H 9 C 7.344,6 6,7.344 6,9 Z"
       inkscape:connector-curvature="0"
       style="fill:url(#_lgradient_5);fill-rule:evenodd" />
  </g>
</svg>

<?xml version="1.0" encoding="UTF-8" standalone="no"?><!-- Generator: Gravit.io --><svg xmlns="http://www.w3.org/2000/svg" xmlns:xlink="http://www.w3.org/1999/xlink" style="isolation:isolate" viewBox="0 0 48 48" width="48pt" height="48pt"><linearGradient id="_lgradient_5" x1="0.02272727272727272" y1="0.19318181818181818" x2="1.0417000400480576" y2="1.0452042450941128" gradientTransform="matrix(44,0,0,44,2,2)" gradientUnits="userSpaceOnUse"><stop offset="0%" stop-opacity="1" style="stop-color:rgb(255,229,59)"/><stop offset="98.69565217391305%" stop-opacity="1" style="stop-color:rgb(255,0,91)"/></linearGradient><path d=" M 8 46 L 40 46 L 41 46 C 41.104 46 41.207 45.997 41.31 45.989 C 43.925 45.83 46 43.656 46 41 L 46 40 L 46 7 C 46 4.24 43.76 2 41 2 L 36.02 2 L 36.02 2 C 34.916 2 34.02 2.896 34.02 4 L 34.02 4 C 34.02 5.104 34.916 6 36.02 6 L 36.02 6 L 39 6 C 40.656 6 42 7.344 42 9 L 42 31.257 C 40.873 29.579 39.382 28.303 37.449 27.338 C 34.911 26.071 32.069 25.21 25.982 23.871 C 22.201 23.039 21.268 22.73 21.152 22.27 C 20.978 21.576 22.517 21.239 25.838 20.998 C 29.283 20.748 30.579 20.353 30.963 19.434 C 31.132 19.029 31.048 18.734 30.666 18.398 C 30.447 18.206 30.283 18.117 30.213 18.125 C 30.143 18.133 30.165 18.238 30.316 18.438 C 30.499 18.679 30.486 19.159 30.291 19.33 C 29.647 19.894 28.479 20.015 23.279 20.359 C 20.314 20.556 18.95 20.855 17.949 21.527 C 17.464 21.854 17.104 22.332 17.104 22.648 C 17.104 23.168 17.926 23.68 20.385 24.691 C 23.506 25.975 24.894 26.726 25.842 27.639 C 26.477 28.251 26.74 28.67 26.916 29.355 C 27.199 30.459 26.751 31.618 25.582 32.811 C 23.473 34.962 19.652 36.983 11.039 40.504 C 8.925 41.368 7.535 41.914 6.199 42.398 L 6 42 L 6 32 C 6 30.896 5.104 30 4 30 L 4 30 C 2.896 30 2 30.896 2 32 L 2 40 L 2 41 C 2 43.659 4.081 45.837 6.702 45.99 C 6.8 45.997 6.9 46 7 46 L 7 46 L 8 46 Z  M 6 24 L 6 24 C 6 25.104 5.104 26 4 26 L 4 26 C 2.896 26 2 25.104 2 24 L 2 24 L 2 7 C 2 4.24 4.24 2 7 2 L 28 2 L 28 2 C 29.104 2 30 2.896 30 4 L 30 4 C 30 5.104 29.104 6 28 6 L 28 6 L 9 6 C 7.344 6 6 7.344 6 9 L 6 24 Z " fill-rule="evenodd" fill="url(#_lgradient_5)"/></svg>
